src/icons/svg/login.svg

<?xml version="1.0" encoding="UTF-8"?>
<svg width="40px" height="34px" viewBox="0 0 40 34" version="1.1" xmlns="http://www.w3.org/2000/svg"
>
    <polygon id="路径"
             points="19.9741208 13.0889162 11.330222 22.3866905 13.8474414 24.7304702 18.1752307 20.0733408 18.1752307 33.2188592 21.7752764 33.2188592 21.7752764 20.075333 26.1032611 24.7304702 28.620168 22.3866905"></polygon>
    <path d="M34.4635235,0 L5.53647654,0 C2.47878147,0 0,2.47878147 0,5.53647654 L0,27.6824217 C0,30.7401168 2.47878147,33.2189373 5.53647654,33.2189373 L11.6952657,33.2189373 L11.6952657,30.0938586 L5.53647654,30.0938586 C4.20681122,30.0938586 3.12503967,29.0120871 3.12503967,27.6824217 L3.12503967,5.5365156 C3.12503967,4.20681122 4.20681122,3.12507874 5.53647654,3.12507874 L34.4634844,3.12507874 C35.7931888,3.12507874 36.8749213,4.20685028 36.8749213,5.5365156 L36.8749213,27.6824608 C36.8749213,29.0121261 35.7931888,30.0938977 34.4634844,30.0938977 L28.3047734,30.0938977 L28.3047734,33.2189373 L34.4635235,33.2189373 C37.5212185,33.2189373 40,30.7401559 40,27.6824608 L40,5.5365156 C40,2.47878147 37.5212185,0 34.4635235,0 Z"
          id="路径"></path>
</svg>

<svg width="40" height="34" xmlns="http://www.w3.org/2000/svg"><path d="M19.974 13.089l-8.644 9.298 2.517 2.343 4.328-4.657V33.22h3.6V20.075l4.328 4.655 2.517-2.343z"/><path d="M34.464 0H5.536A5.536 5.536 0 0 0 0 5.536v22.146a5.537 5.537 0 0 0 5.536 5.537h6.16v-3.125h-6.16a2.414 2.414 0 0 1-2.411-2.412V5.537a2.414 2.414 0 0 1 2.411-2.412h28.927a2.414 2.414 0 0 1 2.412 2.412v22.145a2.414 2.414 0 0 1-2.412 2.412h-6.158v3.125h6.159A5.536 5.536 0 0 0 40 27.682V5.537A5.537 5.537 0 0 0 34.464 0z"/></svg>
